X: 26487
T: Michael Gaffney's
R: barndance
M: 4/4
K: Dmajor
|:(3fed A2 (3fed (3ABc|(3dcd bf a4|(3gfe B2 (3gfe B2|cd (3edB A4|
(3fed A2 (3fed Ac|(3dcd bf a4|g2 fe B2 c2|1 edBc d4:|2 edBc d2 A2||
|:dfed BAFA|(3dcd ed B4|(3dcd ed BAFA|(3BAB (3cBc d2 A2|
d2 ed BAFA|(3dcd (3edc B3 c|(3dcd ed BA FA|B2 c2 d4:|

